images/traning-3.svg

<svg width="45" height="46" viewBox="0 0 45 46" fill="none" xmlns="http://www.w3.org/2000/svg">
<path d="M30.1089 19.3255C29.2687 18.4852 27.028 16.2446 26.3278 15.5444C26.4212 15.5444 26.4678 15.4977 26.5612 15.451C27.028 15.311 27.5415 15.1709 28.1483 14.6107C28.6618 14.0973 28.9419 13.4904 28.9419 12.8369C28.9419 12.1834 28.6618 11.5298 28.1483 11.063C27.6349 10.5495 26.9813 10.2695 26.3278 10.2695C25.6743 10.2695 25.0674 10.5495 24.5539 11.063C23.9938 11.6232 23.8537 12.1834 23.7137 12.6502C23.667 12.7435 23.667 12.8369 23.6203 12.8836C22.8734 12.1834 20.6328 9.89602 19.8859 9.14913C19.0923 8.35556 18.6722 8.35556 17.8786 9.14913L14.471 12.5101C13.6307 13.3504 13.8641 13.9572 14.1909 14.284C14.5643 14.6574 15.0311 14.7975 15.4046 14.8908C15.778 14.9842 16.0581 15.0309 16.3382 15.311C16.8517 15.8244 16.8517 16.478 16.3382 16.9915C15.8247 17.5049 15.1712 17.5049 14.6577 16.9915C14.3776 16.7114 14.2842 16.4313 14.1909 16.0578C14.0975 15.6844 13.9575 15.2643 13.584 14.8908C13.0705 14.3773 12.5104 14.4707 11.8102 15.1242L8.40249 18.5786C7.6556 19.3255 7.6556 19.7923 8.44917 20.5859C9.66286 21.7995 11.5768 23.7134 12.2303 24.367C12.1836 24.367 12.0902 24.4137 11.9969 24.4137C11.5768 24.507 10.9699 24.6471 10.3631 25.2539C9.84958 25.7674 9.5695 26.4209 9.5695 27.0744C9.5695 27.728 9.84958 28.3815 10.3631 28.895C10.8766 29.4085 11.5301 29.6886 12.1836 29.6886C12.8371 29.6886 13.444 29.4085 14.0041 28.895C14.5643 28.3348 14.751 27.7747 14.8444 27.3545C14.8911 27.2612 14.8911 27.1678 14.9378 27.1211C15.638 27.8213 17.9253 30.1087 18.7189 30.9022C19.139 31.3224 19.4191 31.4624 19.6992 31.4624C19.9792 31.4624 20.2593 31.2757 20.6795 30.9022L24.0871 27.4946C24.2272 27.3545 24.4606 27.1211 24.5539 26.841C24.7407 26.4676 24.6473 26.0942 24.3205 25.7674C23.9471 25.3939 23.4803 25.2539 23.1535 25.1605C22.8268 25.0672 22.5467 24.9738 22.2199 24.6937C21.9398 24.4137 21.7998 24.1336 21.7998 23.8535C21.7998 23.5734 21.9398 23.2933 22.2199 23.0132C22.4533 22.7798 22.7801 22.6398 23.0602 22.6398C23.3402 22.6398 23.667 22.7798 23.9004 23.0132C24.1805 23.2933 24.2272 23.5734 24.3205 23.9469C24.4139 24.1803 24.5073 24.6471 24.8807 25.0205C25.3475 25.4873 25.9544 25.3939 26.6546 24.7404L30.0622 21.3327C30.4357 20.9593 30.6691 20.6792 30.6691 20.3525C30.6691 19.979 30.4357 19.6522 30.1089 19.3255Z" fill="#FF8901"/>
<path d="M19.2324 0.699951C14.0975 0.699951 9.24274 2.70721 5.60166 6.34829C2.00726 9.98937 0 14.7975 0 19.9323C0 25.0672 2.00726 29.9219 5.64834 33.563C9.28942 37.2041 14.0975 39.2114 19.279 39.2114C23.3869 39.2114 27.2614 37.951 30.5757 35.5703L31.0425 35.2435L31.1359 35.3369L40.7054 44.9064C41.1722 45.3732 41.8257 45.6533 42.4793 45.6533C43.1328 45.6533 43.7863 45.3732 44.2531 44.9064C44.7199 44.4396 45 43.8327 45 43.1325C45 42.479 44.7199 41.8255 44.2531 41.3587L34.4969 31.6958L34.8237 31.229C40.4253 23.5267 39.5851 13.0703 32.8631 6.30161C29.222 2.70721 24.3672 0.699951 19.2324 0.699951ZM30.6691 31.369C27.6349 34.45 23.5737 36.1304 19.2324 36.1304C14.9378 36.1304 10.8766 34.45 7.79564 31.4157C4.76141 28.3348 3.08091 24.2736 3.08091 19.9323C3.08091 15.591 4.76141 11.5765 7.79564 8.54227C10.8766 5.46136 14.9378 3.78086 19.2324 3.78086C23.527 3.78086 27.5882 5.46136 30.6691 8.49559C36.971 14.8441 36.971 25.0672 30.6691 31.369Z" fill="#1D5C73"/>
</svg>

<svg width="45" height="46" fill="none" xmlns="http://www.w3.org/2000/svg"><path d="M30.109 19.326l-3.781-3.782c.093 0 .14-.046.233-.093.467-.14.98-.28 1.587-.84.514-.514.794-1.12.794-1.774a2.41 2.41 0 00-.794-1.774c-.513-.514-1.167-.793-1.82-.793-.654 0-1.26.28-1.774.793-.56.56-.7 1.12-.84 1.587-.047.093-.047.187-.094.234-.747-.7-2.987-2.988-3.734-3.735-.794-.793-1.214-.793-2.007 0L14.47 12.51c-.84.84-.607 1.447-.28 1.774.373.373.84.513 1.214.607.373.093.653.14.933.42.514.513.514 1.167 0 1.68-.513.514-1.167.514-1.68 0-.28-.28-.374-.56-.467-.933-.094-.374-.234-.794-.607-1.167-.514-.514-1.074-.42-1.774.233L8.402 18.58c-.746.747-.746 1.213.047 2.007l3.781 3.781c-.046 0-.14.047-.233.047-.42.093-1.027.233-1.634.84-.513.513-.793 1.167-.793 1.82 0 .654.28 1.307.793 1.821.514.514 1.167.794 1.82.794.654 0 1.261-.28 1.821-.794.56-.56.747-1.12.84-1.54.047-.094.047-.187.094-.234l3.78 3.781c.421.42.701.56.981.56s.56-.186.98-.56l3.408-3.407c.14-.14.374-.374.467-.654.187-.373.093-.747-.233-1.074-.374-.373-.84-.513-1.168-.607-.326-.093-.606-.186-.933-.466-.28-.28-.42-.56-.42-.84 0-.28.14-.56.42-.84.233-.234.56-.374.84-.374.28 0 .607.14.84.373.28.28.327.56.42.934.094.233.187.7.56 1.073.468.467 1.074.374 1.775-.28l3.407-3.407c.374-.374.607-.654.607-.98 0-.374-.233-.7-.56-1.027z" fill="#FF8901"/><path d="M19.232.7c-5.134 0-9.99 2.007-13.63 5.648C2.007 9.99 0 14.798 0 19.932c0 5.135 2.007 9.99 5.648 13.631 3.641 3.641 8.45 5.648 13.631 5.648a19.19 19.19 0 0011.297-3.64l.466-.328.094.094 9.57 9.57a2.55 2.55 0 001.773.746 2.55 2.55 0 001.774-.747A2.468 2.468 0 0045 43.133a2.55 2.55 0 00-.747-1.774l-9.756-9.663.327-.467c5.601-7.702 4.761-18.159-1.96-24.927A19.328 19.328 0 0019.231.7zM30.67 31.369c-3.034 3.081-7.095 4.761-11.437 4.761-4.294 0-8.355-1.68-11.436-4.714C4.76 28.335 3.08 24.274 3.08 19.932c0-4.341 1.68-8.355 4.715-11.39 3.08-3.08 7.142-4.761 11.436-4.761 4.295 0 8.356 1.68 11.437 4.715 6.302 6.348 6.302 16.571 0 22.873z" fill="#1D5C73"/></svg>
